X: 4
T: G_d Rest Ye Merry
M: 4/4
C: Edw. Huws-Jones
L: 1/4
K: G
V: 1 name="Vla I" snm="" clef=alto middle=c
%%MIDI channel 1
%%MIDI program 40
|: !f!ue | e b b a | g f e d | e f g a |
b3 !mf!d | d b b a | g f e d | e f g a |
b3 b | c' a b c' | d' e' b a | g e f g |
a2 g a | b c' d' e' | b a g f | e3 :|
V: 2 name="Vla II" snm="" clef=alto middle=c
%%MIDI channel 2
%%MIDI program 40
|:   ue | e2 g f | e2 g f | e2 e d |
G3 ue | e2 g f | e2 g f | e2 e d |
G3 ug | A c B A | G2 g a | (b g) f e |
d2 e d | G2 B c | (G A) B d | e3 :|
